static/assets/head_icons_png/man/bizi/1035271.svg

<svg xmlns="http://www.w3.org/2000/svg" width="8" height="9"><g transform="translate(3.7 4.15)"><radialGradient id="a" gradientUnits="userSpaceOnUse" gradientTransform="rotate(6.577 -61.92 88.006) scale(.01003)" spreadMethod="pad" cx="0" cy="0" r="819.2" fx="0" fy="0"><stop offset="0" stop-color="#fbbd9d"/><stop offset="1" stop-color="#fedec1"/></radialGradient><path d="M-.65 4.15l.1-.6v-.1l.05-.15.9-1.85.9-.95.55 1.75.1.2q.2.7 0 1l-.4.4-.4.2L0 4.2l-.65-.05" fill="url(#a)"/><radialGradient id="b" gradientUnits="userSpaceOnUse" gradientTransform="rotate(2.106 447.18 -28.853) scale(.01362)" spreadMethod="pad" cx="0" cy="0" r="819.2" fx="0" fy="0"><stop offset="0" stop-color="#fbbd9d"/><stop offset="1" stop-color="#fedec1"/></radialGradient><path d="M.4 1.45L-.5 3.3l-.05.15v.1l-.1.6h-.3l-.25-.05-.15-.55-.1-.3-.6-1.25-.25-.35-.45-.6.35-1.35.05-.25-.05-.35q0-1.25-.55-2.1l-.3-.4-.45-.35 3.5-.4q2.3 0 3.95.6-2.1.9-2.5 1.65-.45.8 0 2.2l.05.2-.9.95" fill="url(#b)"/><radialGradient id="c" gradientUnits="userSpaceOnUse" gradientTransform="rotate(6.537 -83.245 -103.645) scale(.01049)" spreadMethod="pad" cx="0" cy="0" r="819.2" fx="0" fy="0"><stop offset="0" stop-color="#fbbd9d"/><stop offset="1" stop-color="#fedec1"/></radialGradient><path d="M-2.75 1.05l.45.6.25.35.6 1.25.1.3.15.55h-1.05l-.8-.1-.25-.4-.15-.6.15-.45.4-1.2.15-.3" fill="url(#c)"/><radialGradient id="d" gradientUnits="userSpaceOnUse" gradientTransform="matrix(.01138 0 -.00037 .01138 -1.75 -2.85)" spreadMethod="pad" cx="0" cy="0" r="819.2" fx="0" fy="0"><stop offset="0" stop-color="#f58b69"/><stop offset="1" stop-color="#ffdec2" stop-opacity="0"/></radialGradient><path d="M1.6 2l.1.35v.6-.05q-.05-.4-.3-.5L1 2.35l-.25.25-.15.25-.35.1-.4.3-.5.2-.2.05Q.65 2.65.4 1.35L0-.95q-.05-1.1.25-1.4l.5-.55.4-.25.4-.15.95-.2 1.25-.05q-2.1.9-2.5 1.65-.45.8 0 2.2l.6 1.95.1.2L1.6 2" fill="url(#d)"/><radialGradient id="e" gradientUnits="userSpaceOnUse" gradientTransform="matrix(.00993 0 -.00012 .00352 -1.1 4.4)" spreadMethod="pad" cx="0" cy="0" r="819.2" fx="0" fy="0"><stop offset="0" stop-color="#f58b69"/><stop offset="1" stop-color="#ffdec2" stop-opacity="0"/></radialGradient><path d="M.9 2.85l.65.2.15.2v-.9L1.6 2l.35.45q.2.7 0 1l-.4.4-.4.2L0 4.2l-.95-.05-.55-.05h-.75l-.8-.1-.25-.4-.15-.6q.4-.35.7-.25.3.05.75.45l.55.3.2.05.4-.05.2-.05.5-.2.4-.3.35-.1h.3" fill="url(#e)"/><radialGradient id="f" gradientUnits="userSpaceOnUse" gradientTransform="matrix(.00894 0 -.00029 .00894 -5.4 -1.05)" spreadMethod="pad" cx="0" cy="0" r="819.2" fx="0" fy="0"><stop offset="0" stop-color="#f58b69" stop-opacity=".773"/><stop offset="1" stop-color="#ffdec2" stop-opacity="0"/></radialGradient><path d="M-3.45 3l.15-.45.4-1.2.55-1.9-.25-2q.9.8.85 1.9L-1.95.8l-.05.6-.05.6.05.5.55 1-.55-.3q-.45-.4-.75-.45-.3-.1-.7.25" fill="url(#f)"/><path d="M-.1 3.55l.35-.15.35.05.15.2-.05.1H.3l-.8.2.4-.4m-1.85-.05l.45.45-.4-.2h-.25l-.45.1-.05-.1.15-.2.25-.15.3.1" fill="#753833"/><radialGradient id="g" gradientUnits="userSpaceOnUse" gradientTransform="matrix(.00078 .00014 -.0001 .00064 -1.25 2.6)" spreadMethod="pad" cx="0" cy="0" r="819.2" fx="0" fy="0"><stop offset=".314" stop-color="#fff" stop-opacity=".663"/><stop offset="1" stop-color="#fff" stop-opacity="0"/></radialGradient><path d="M-1.65 2.3l.45-.05.45.15.15.35-.3.2-.45.05-.45-.2-.1-.3.25-.2" fill="url(#g)"/><radialGradient id="h" gradientUnits="userSpaceOnUse" gradientTransform="matrix(.00055 .00005 -.00005 .00212 -.9 .25)" spreadMethod="pad" cx="0" cy="0" r="819.2" fx="0" fy="0"><stop offset=".314" stop-color="#fff" stop-opacity=".431"/><stop offset="1" stop-color="#fff" stop-opacity="0"/></radialGradient><path d="M-.6-.95l.05 1.2-.1 1.25-.05.25h-.05l-.15.2-.15-.2V1.7l-.1-.25L-1.2.2l.1-1.2.25-.5.25.55" fill="url(#h)"/></g></svg>

<?xml version="1.0" encoding="utf-8"?>
<svg version="1.1" id="Layer_1"
xmlns="http://www.w3.org/2000/svg"
xmlns:xlink="http://www.w3.org/1999/xlink"
xmlns:author="http://www.sothink.com"
width="8px" height="9px"
xml:space="preserve">
<g id="491" transform="matrix(1, 0, 0, 1, 3.7, 4.15)">
<radialGradient
id="RadialGradID_4217" gradientUnits="userSpaceOnUse" gradientTransform="matrix(0.00996399, 0.00112915, -0.00112915, 0.00996399, 9.5, 7.55)" spreadMethod ="pad" cx="0" cy="0" r="819.2" fx="0" fy="0" >
<stop  offset="0"  style="stop-color:#FBBD9D;stop-opacity:1" />
<stop  offset="1"  style="stop-color:#FEDEC1;stop-opacity:1" />
</radialGradient>
<path style="fill:url(#RadialGradID_4217) " d="M-0.65,4.15L-0.55 3.55L-0.55 3.45L-0.5 3.3L0.4 1.45L1.3 0.5L1.85 2.25L1.95 2.45Q2.15 3.15 1.95 3.45L1.55 3.85L1.15 4.05L0 4.2L-0.65 4.15" />
<radialGradient
id="RadialGradID_4218" gradientUnits="userSpaceOnUse" gradientTransform="matrix(0.0136108, 0.000473022, -0.000473022, 0.0136108, -0.7, -15.55)" spreadMethod ="pad" cx="0" cy="0" r="819.2" fx="0" fy="0" >
<stop  offset="0"  style="stop-color:#FBBD9D;stop-opacity:1" />
<stop  offset="1"  style="stop-color:#FEDEC1;stop-opacity:1" />
</radialGradient>
<path style="fill:url(#RadialGradID_4218) " d="M0.4,1.45L-0.5 3.3L-0.55 3.45L-0.55 3.55L-0.65 4.15L-0.95 4.15L-1.2 4.1L-1.35 3.55L-1.45 3.25L-2.05 2L-2.3 1.65L-2.75 1.05L-2.4 -0.3L-2.35 -0.55L-2.4 -0.9Q-2.4 -2.15 -2.95 -3L-3.25 -3.4L-3.7 -3.75L-0.2 -4.15Q2.1 -4.15 3.75 -3.55Q1.65 -2.65 1.25 -1.9Q0.8 -1.1 1.25 0.3L1.3 0.5L0.4 1.45" />
<radialGradient
id="RadialGradID_4219" gradientUnits="userSpaceOnUse" gradientTransform="matrix(0.0104218, 0.00117493, -0.00117493, 0.0104218, -12.15, 8.65)" spreadMethod ="pad" cx="0" cy="0" r="819.2" fx="0" fy="0" >
<stop  offset="0"  style="stop-color:#FBBD9D;stop-opacity:1" />
<stop  offset="1"  style="stop-color:#FEDEC1;stop-opacity:1" />
</radialGradient>
<path style="fill:url(#RadialGradID_4219) " d="M-2.75,1.05L-2.3 1.65L-2.05 2L-1.45 3.25L-1.35 3.55L-1.2 4.1L-1.5 4.1L-2.25 4.1L-3.05 4L-3.3 3.6L-3.45 3L-3.3 2.55L-2.9 1.35L-2.75 1.05" />
<radialGradient
id="RadialGradID_4220" gradientUnits="userSpaceOnUse" gradientTransform="matrix(0.0113831, 0, -0.000366211, 0.0113831, -1.75, -2.85)" spreadMethod ="pad" cx="0" cy="0" r="819.2" fx="0" fy="0" >
<stop  offset="0"  style="stop-color:#F58B69;stop-opacity:1" />
<stop  offset="1"  style="stop-color:#FFDEC2;stop-opacity:0" />
</radialGradient>
<path style="fill:url(#RadialGradID_4220) " d="M1.6,2L1.7 2.35L1.7 2.95L1.7 2.9Q1.65 2.5 1.4 2.4L1 2.35L0.75 2.6L0.6 2.85L0.25 2.95L-0.15 3.25L-0.65 3.45L-0.85 3.5Q0.65 2.65 0.4 1.35L0 -0.95Q-0.05 -2.05 0.25 -2.35L0.75 -2.9L1.15 -3.15L1.55 -3.3L2.5 -3.5L3.75 -3.55Q1.65 -2.65 1.25 -1.9Q0.8 -1.1 1.25 0.3L1.85 2.25L1.95 2.45L1.6 2" />
<radialGradient
id="RadialGradID_4221" gradientUnits="userSpaceOnUse" gradientTransform="matrix(0.00993347, 0, -0.00012207, 0.00352478, -1.1, 4.4)" spreadMethod ="pad" cx="0" cy="0" r="819.2" fx="0" fy="0" >
<stop  offset="0"  style="stop-color:#F58B69;stop-opacity:1" />
<stop  offset="1"  style="stop-color:#FFDEC2;stop-opacity:0" />
</radialGradient>
<path style="fill:url(#RadialGradID_4221) " d="M0.9,2.85L1.55 3.05L1.7 3.25L1.7 3.05L1.7 2.95L1.7 2.35L1.6 2L1.95 2.45Q2.15 3.15 1.95 3.45L1.55 3.85L1.15 4.05L0 4.2L-0.95 4.15L-1.5 4.1L-2.25 4.1L-3.05 4L-3.3 3.6L-3.45 3Q-3.05 2.65 -2.75 2.75Q-2.45 2.8 -2 3.2L-1.45 3.5L-1.25 3.55L-0.85 3.5L-0.65 3.45L-0.15 3.25L0.25 2.95L0.6 2.85L0.9 2.85" />
<radialGradient
id="RadialGradID_4222" gradientUnits="userSpaceOnUse" gradientTransform="matrix(0.00894165, 0, -0.000289917, 0.00894165, -5.4, -1.05)" spreadMethod ="pad" cx="0" cy="0" r="819.2" fx="0" fy="0" >
<stop  offset="0"  style="stop-color:#F58B69;stop-opacity:0.772549" />
<stop  offset="1"  style="stop-color:#FFDEC2;stop-opacity:0" />
</radialGradient>
<path style="fill:url(#RadialGradID_4222) " d="M-3.45,3L-3.3 2.55L-2.9 1.35L-2.35 -0.55L-2.6 -2.55Q-1.7 -1.75 -1.75 -0.65L-1.95 0.8L-2 1.4L-2.05 2L-2 2.5L-1.45 3.5L-2 3.2Q-2.45 2.8 -2.75 2.75Q-3.05 2.65 -3.45 3" />
<path style="fill:#753833;fill-opacity:1" d="M-0.1,3.55L0.25 3.4L0.6 3.45L0.75 3.65L0.7 3.75L0.3 3.75L-0.5 3.95L-0.1 3.55M-1.95,3.5L-1.5 3.95L-1.9 3.75L-2.15 3.75L-2.6 3.85L-2.65 3.75L-2.5 3.55L-2.25 3.4L-1.95 3.5" />
<radialGradient
id="RadialGradID_4223" gradientUnits="userSpaceOnUse" gradientTransform="matrix(0.000778198, 0.000137329, -0.000106812, 0.000640869, -1.25, 2.6)" spreadMethod ="pad" cx="0" cy="0" r="819.2" fx="0" fy="0" >
<stop  offset="0.313725"  style="stop-color:#FFFFFF;stop-opacity:0.662745" />
<stop  offset="1"  style="stop-color:#FFFFFF;stop-opacity:0" />
</radialGradient>
<path style="fill:url(#RadialGradID_4223) " d="M-1.65,2.3L-1.2 2.25L-0.75 2.4L-0.6 2.75L-0.9 2.95L-1.35 3L-1.8 2.8L-1.9 2.5L-1.65 2.3" />
<radialGradient
id="RadialGradID_4224" gradientUnits="userSpaceOnUse" gradientTransform="matrix(0.000549316, 4.57764e-005, -4.57764e-005, 0.00212097, -0.9, 0.25)" spreadMethod ="pad" cx="0" cy="0" r="819.2" fx="0" fy="0" >
<stop  offset="0.313725"  style="stop-color:#FFFFFF;stop-opacity:0.431373" />
<stop  offset="1"  style="stop-color:#FFFFFF;stop-opacity:0" />
</radialGradient>
<path style="fill:url(#RadialGradID_4224) " d="M-0.6,-0.95L-0.55 0.25L-0.65 1.5L-0.7 1.75L-0.75 1.75L-0.9 1.95L-1.05 1.75L-1.05 1.7L-1.15 1.45L-1.2 0.2L-1.1 -1L-0.85 -1.5L-0.6 -0.95" />
</g>
</svg>
